svg/clock_remove_outline.svg

<svg xmlns="http://www.w3.org/2000/svg" viewBox="0 0 24 24"><path d="M14.47 15.08 11 13V7h1.5v5.25l3.08 1.83c-.41.28-.79.62-1.11 1m-1.39 4.84c-.36.05-.71.08-1.08.08-4.42 0-8-3.58-8-8s3.58-8 8-8 8 3.58 8 8c0 .37-.03.72-.08 1.08.69.1 1.33.32 1.92.64.1-.56.16-1.13.16-1.72 0-5.5-4.5-10-10-10S2 6.5 2 12s4.47 10 10 10c.59 0 1.16-.06 1.72-.16-.32-.59-.54-1.23-.64-1.92m8.04-4.46L19 17.59l-2.12-2.12-1.41 1.41L17.59 19l-2.12 2.12 1.41 1.42L19 20.41l2.12 2.13 1.42-1.42L20.41 19l2.13-2.12z"/></svg>

<svg xmlns="http://www.w3.org/2000/svg" id="mdi-clock-remove-outline" viewBox="0 0 24 24"><path d="M14.47 15.08L11 13V7H12.5V12.25L15.58 14.08C15.17 14.36 14.79 14.7 14.47 15.08M13.08 19.92C12.72 19.97 12.37 20 12 20C7.58 20 4 16.42 4 12S7.58 4 12 4 20 7.58 20 12C20 12.37 19.97 12.72 19.92 13.08C20.61 13.18 21.25 13.4 21.84 13.72C21.94 13.16 22 12.59 22 12C22 6.5 17.5 2 12 2S2 6.5 2 12C2 17.5 6.47 22 12 22C12.59 22 13.16 21.94 13.72 21.84C13.4 21.25 13.18 20.61 13.08 19.92M21.12 15.46L19 17.59L16.88 15.47L15.47 16.88L17.59 19L15.47 21.12L16.88 22.54L19 20.41L21.12 22.54L22.54 21.12L20.41 19L22.54 16.88L21.12 15.46Z" /></svg>
